Sources/FrostedUI/Resources/Icons.xcassets/videoFilled16.imageset/video-filled-16.svg

<svg width="16" height="16" viewBox="0 0 16 16" fill="none" xmlns="http://www.w3.org/2000/svg" data-fui-icon="true">
  <path
    d="M16 11.8666C16 13.2657 14.8659 14.3998 13.4668 14.3998H2.5332C1.13414 14.3998 0 13.2657 0 11.8666V6.25043H16V11.8666ZM6.69922 7.96136C6.53263 7.8663 6.32537 7.98642 6.3252 8.17816V12.1459C6.3253 12.3373 6.53163 12.4578 6.69824 12.3637L10.1914 10.3901C10.3604 10.2946 10.3609 10.0507 10.1924 9.95453L6.69922 7.96136ZM1.27734 5.00043H0V4.13324C7.17651e-05 2.73422 1.13419 1.60011 2.5332 1.60004H4.67773L1.27734 5.00043ZM5.77734 5.00043H3.04492L6.40039 1.64496C6.41428 1.63105 6.4252 1.61487 6.4375 1.60004H9.17773L5.77734 5.00043ZM13.5781 1.60492L10.1836 5.00043H7.54492L10.9004 1.64496C10.9143 1.63105 10.9252 1.61487 10.9375 1.60004H13.4668C13.5041 1.60004 13.5412 1.60332 13.5781 1.60492ZM14.9033 2.0473C15.5656 2.50425 16 3.26779 16 4.13324V5.00043H11.9512L14.9033 2.0473Z"
    fill="currentColor"
  />
</svg>

<svg xmlns="http://www.w3.org/2000/svg" width="16" height="16" fill="none" data-fui-icon="true" viewBox="0 0 16 16"><path fill="currentColor" d="M16 11.867c0 1.399-1.134 2.533-2.533 2.533H2.533A2.533 2.533 0 0 1 0 11.867V6.25h16zM6.7 7.96a.25.25 0 0 0-.375.217v3.968a.25.25 0 0 0 .373.218l3.493-1.974a.25.25 0 0 0 .001-.435zm-5.423-2.96H0v-.868A2.533 2.533 0 0 1 2.533 1.6h2.145zm4.5 0H3.045L6.4 1.644q.02-.022.037-.045h2.74zm7.801-3.396L10.184 5h-2.64L10.9 1.645q.02-.022.037-.045h2.53q.056.001.111.005m1.325.442A2.53 2.53 0 0 1 16 4.133V5h-4.049z"/></svg>
